assets/img/hr-red-4.svg

<?xml version="1.0" encoding="UTF-8" standalone="no"?>
<svg width="89px" height="8px" viewBox="0 0 89 8" version="1.1" xmlns="http://www.w3.org/2000/svg" xmlns:xlink="http://www.w3.org/1999/xlink">
    <!-- Generator: Sketch 39.1 (31720) - http://www.bohemiancoding.com/sketch -->
    <title>Group 5</title>
    <desc>Created with Sketch.</desc>
    <defs></defs>
    <g id="Page-1" stroke="none" stroke-width="1" fill="none" fill-rule="evenodd">
        <g id="Playbook-Principles" transform="translate(-100.000000, -2806.000000)" fill="#E21C3D">
            <g id="Group-5" transform="translate(100.000000, 2806.000000)">
                <path d="M37,4 C37,1.790861 38.7818508,-8.8817842e-16 40.9948438,-8.8817842e-16 L71.0051562,-8.8817842e-16 C73.2114475,-8.8817842e-16 75,1.79535615 75,4 L75,4 C75,6.209139 73.2181492,8 71.0051562,8 L40.9948438,8 C38.7885525,8 37,6.20464385 37,4 L37,4 Z" id="Rectangle-234-Copy-8" transform="translate(56.000000, 4.000000) rotate(-180.000000) translate(-56.000000, -4.000000) "></path>
                <path d="M-3.77475828e-16,4 C-3.77475828e-16,1.790861 1.78716697,0 4.00723574,0 L12.9927643,0 C15.2058994,0 17,1.79535615 17,4 L17,4 C17,6.209139 15.212833,8 12.9927643,8 L4.00723574,8 C1.79410055,8 -3.77475828e-16,6.20464385 -3.77475828e-16,4 L-3.77475828e-16,4 Z" id="Rectangle-234-Copy-9" transform="translate(8.500000, 4.000000) rotate(-180.000000) translate(-8.500000, -4.000000) "></path>
                <path d="M23,4 C23,1.790861 24.7953562,0 27,0 L27,0 C29.209139,0 31,1.79535615 31,4 L31,4 C31,6.209139 29.2046438,8 27,8 L27,8 C24.790861,8 23,6.20464385 23,4 L23,4 Z" id="Rectangle-234-Copy-10" transform="translate(27.000000, 4.000000) rotate(-180.000000) translate(-27.000000, -4.000000) "></path>
                <path d="M81,4 C81,1.790861 82.7953562,0 85,0 L85,0 C87.209139,0 89,1.79535615 89,4 L89,4 C89,6.209139 87.2046438,8 85,8 L85,8 C82.790861,8 81,6.20464385 81,4 L81,4 Z" id="Rectangle-234-Copy-11" transform="translate(85.000000, 4.000000) rotate(-180.000000) translate(-85.000000, -4.000000) "></path>
            </g>
        </g>
    </g>
</svg>

<svg width="89" height="8" xmlns="http://www.w3.org/2000/svg"><path d="M75 4c0 2.21-1.782 4-3.995 4h-30.01A4 4 0 0137 4c0-2.21 1.782-4 3.995-4h30.01A4 4 0 0175 4zM17 4a4 4 0 01-4.007 4H4.007a4 4 0 110-8h8.986A4.007 4.007 0 0117 4zm14 0c0 2.21-1.795 4-4 4-2.21 0-4-1.795-4-4 0-2.21 1.795-4 4-4 2.21 0 4 1.795 4 4zm58 0c0 2.21-1.795 4-4 4-2.21 0-4-1.795-4-4 0-2.21 1.795-4 4-4 2.21 0 4 1.795 4 4z" fill="#E21C3D" fill-rule="evenodd"/></svg>
